;FLAVOR:Marlin
;TIME:2299
;Filament used: 1.25476m
;Layer height: 0.2
;MINX:44.866
;MINY:61.497
;MINZ:0.2
;MAXX:190.969
;MAXY:173.5
;MAXZ:1.4
;Generated with Cura_SteamEngine 5.3.0
M140 S60
M105
M190 S60
M104 S200
M105
M109 S200
M82 ;absolute extrusion mode
M201 X500.00 Y500.00 Z100.00 E5000.00 ;Setup machine max acceleration
M203 X500.00 Y500.00 Z10.00 E50.00 ;Setup machine max feedrate
M204 P500.00 R1000.00 T500.00 ;Setup Print/Retract/Travel acceleration
M205 X8.00 Y8.00 Z0.40 E5.00 ;Setup Jerk
M220 S100 ;Reset Feedrate
M221 S100 ;Reset Flowrate

G28 ;Home

G92 E0 ;Reset Extruder
G1 Z2.0 F3000 ;Move Z Axis up
G1 X10.1 Y20 Z0.28 F5000.0 ;Move to start position
G1 X10.1 Y200.0 Z0.28 F1500.0 E15 ;Draw the first line
G1 X10.4 Y200.0 Z0.28 F5000.0 ;Move to side a little
G1 X10.4 Y20 Z0.28 F1500.0 E30 ;Draw the second line
G92 E0 ;Reset Extruder
G1 Z2.0 F3000 ;Move Z Axis up

G92 E0
G92 E0
G1 F1500 E-6.5
;LAYER_COUNT:7
;LAYER:0
M107
G0 F6000 X49.528 Y64.524 Z0.2
;TYPE:SKIRT
G1 F1500 E0
G1 F1200 X50.26 Y63.994 E0.03006
G1 X51.035 Y63.531 E0.06008
G1 X51.848 Y63.138 E0.09012
G1 X52.693 Y62.818 E0.12017
G1 X53.562 Y62.575 E0.15018
G1 X54.45 Y62.409 E0.18023
G1 X55.589 Y62.313 E0.21825
G1 X56.198 Y62.3 E0.23851
G1 X88.537 Y62.305 E1.31411
G1 X90.383 Y62.297 E1.37551
G1 X95.309 Y62.305 E1.53935
G1 X128.823 Y62.3 E2.65403
G1 X130.943 Y62.308 E2.72454
G1 X132.057 Y62.3 E2.76159
G1 X170.001 Y62.305 E4.02361
G1 X171.848 Y62.297 E4.08504
G1 X176.756 Y62.305 E4.24829
G1 X179.408 Y62.301 E4.33649
G1 X180.106 Y62.311 E4.35971
G1 X181.008 Y62.364 E4.38976
G1 X181.901 Y62.496 E4.41979
G1 X182.779 Y62.707 E4.44982
G1 X183.635 Y62.995 E4.47986
G1 X184.462 Y63.357 E4.50988
G1 X185.254 Y63.792 E4.53994
G1 X186.005 Y64.294 E4.56998
G1 X186.708 Y64.861 E4.60002
G1 X187.358 Y65.488 E4.63006
G1 X187.95 Y66.17 E4.6601
G1 X188.48 Y66.901 E4.69013
G1 X188.942 Y67.677 E4.72017
G1 X189.335 Y68.49 E4.7502
G1 X189.653 Y69.335 E4.78023
G1 X189.896 Y70.205 E4.81027
G1 X190.061 Y71.093 E4.84031
G1 X190.156 Y72.223 E4.87803
G1 X190.169 Y72.83 E4.89822
G1 X190.168 Y161.89 E7.86037
G1 X190.159 Y162.617 E7.88455
G1 X190.108 Y163.519 E7.9146
G1 X189.977 Y164.413 E7.94465
G1 X189.768 Y165.291 E7.97467
G1 X189.482 Y166.148 E8.00472
G1 X189.121 Y166.976 E8.03477
G1 X188.689 Y167.768 E8.06477
G1 X188.188 Y168.52 E8.09483
G1 X187.622 Y169.224 E8.12487
G1 X186.997 Y169.875 E8.15489
G1 X186.316 Y170.469 E8.18494
G1 X185.585 Y171 E8.21499
G1 X184.811 Y171.464 E8.24501
G1 X183.998 Y171.858 E8.27505
G1 X183.154 Y172.178 E8.30508
G1 X182.284 Y172.423 E8.33514
G1 X181.397 Y172.589 E8.36515
G1 X180.246 Y172.687 E8.40357
G1 X179.639 Y172.7 E8.42377
G1 X173.181 Y172.699 E8.63856
G1 X172.477 Y172.689 E8.66198
G1 X171.576 Y172.636 E8.692
G1 X170.471 Y172.461 E8.72921
G1 X169.965 Y172.352 E8.74642
G1 X167.448 Y171.849 E8.83179
G1 X164.927 Y171.418 E8.91686
G1 X162.457 Y171.067 E8.99984
G1 X159.921 Y170.779 E9.08473
G1 X157.367 Y170.562 E9.16998
G1 X154.84 Y170.42 E9.25416
G1 X152.305 Y170.349 E9.33851
G1 X149.77 Y170.349 E9.42282
G1 X147.206 Y170.422 E9.50814
G1 X144.7 Y170.565 E9.59162
G1 X142.147 Y170.783 E9.67684
G1 X139.654 Y171.067 E9.7603
G1 X137.131 Y171.426 E9.84506
G1 X134.621 Y171.857 E9.92976
G1 X131.484 Y172.49 E10.0362
G1 X130.592 Y172.629 E10.06623
G1 X129.756 Y172.687 E10.0941
G1 X129.149 Y172.7 E10.1143
G1 X91.716 Y172.699 E11.35932
G1 X91.012 Y172.689 E11.38274
G1 X90.111 Y172.636 E11.41276
G1 X89.217 Y172.504 E11.44282
G1 X88.339 Y172.293 E11.47285
G1 X87.093 Y171.846 E11.51688
G1 X86.598 Y171.631 E11.53483
G1 X85.033 Y170.924 E11.59194
G1 X82.711 Y169.953 E11.67566
G1 X80.293 Y169.021 E11.76185
G1 X77.927 Y168.185 E11.84531
G1 X75.524 Y167.412 E11.92926
G1 X73.068 Y166.697 E12.01434
G1 X70.599 Y166.054 E12.0992
G1 X68.168 Y165.494 E12.18217
G1 X65.601 Y164.979 E12.26925
G1 X63.142 Y164.557 E12.35224
G1 X60.633 Y164.199 E12.43653
G1 X58.122 Y163.913 E12.52059
G1 X55.023 Y163.653 E12.62402
G1 X54.127 Y163.538 E12.65407
G1 X53.245 Y163.344 E12.6841
G1 X52.384 Y163.073 E12.71413
G1 X51.55 Y162.727 E12.74416
G1 X50.75 Y162.308 E12.77419
G1 X49.99 Y161.82 E12.80423
G1 X49.276 Y161.267 E12.83427
G1 X48.614 Y160.652 E12.86433
G1 X48.009 Y159.982 E12.89435
G1 X47.465 Y159.261 E12.92439
G1 X46.988 Y158.494 E12.95443
G1 X46.58 Y157.689 E12.98445
G1 X46.245 Y156.85 E13.0145
G1 X45.985 Y155.985 E13.04454
G1 X45.803 Y155.1 E13.07459
G1 X45.679 Y153.766 E13.11915
G1 X45.666 Y153.158 E13.13938
G1 X45.667 Y73.036 E15.80425
G1 X45.676 Y72.371 E15.82637
G1 X45.728 Y71.469 E15.85642
G1 X45.86 Y70.576 E15.88644
G1 X46.07 Y69.698 E15.91647
G1 X46.357 Y68.841 E15.94653
G1 X46.719 Y68.014 E15.97655
G1 X47.152 Y67.222 E16.00657
G1 X47.654 Y66.471 E16.03662
G1 X48.221 Y65.767 E16.06668
G1 X48.847 Y65.117 E16.0967
G1 X49.528 Y64.524 E16.12673
G0 F6000 X49.265 Y64.222
G1 F1200 X50.025 Y63.67 E16.15797
G1 X50.861 Y63.171 E16.19036
G1 X51.706 Y62.764 E16.22155
G1 X52.551 Y62.444 E16.2516
G1 X53.488 Y62.182 E16.28396
G1 X54.416 Y62.01 E16.31536
G1 X55.555 Y61.914 E16.35337
G1 X56.198 Y61.9 E16.37476
G1 X88.535 Y61.905 E17.4503
G1 X90.384 Y61.897 E17.5118
G1 X95.31 Y61.905 E17.67564
G1 X128.824 Y61.9 E18.79032
G1 X130.941 Y61.908 E18.86073
G1 X132.057 Y61.9 E18.89785
G1 X169.999 Y61.905 E20.1598
G1 X171.849 Y61.897 E20.22133
G1 X176.756 Y61.905 E20.38454
G1 X179.414 Y61.901 E20.47295
G1 X180.129 Y61.912 E20.49673
G1 X181.066 Y61.968 E20.52795
G1 X181.959 Y62.1 E20.55798
G1 X182.907 Y62.328 E20.59041
G1 X183.763 Y62.616 E20.62044
G1 X184.655 Y63.006 E20.65282
G1 X185.447 Y63.441 E20.68288
G1 X186.227 Y63.961 E20.71406
G1 X186.986 Y64.573 E20.74649
G1 X187.636 Y65.2 E20.77652
G1 X188.274 Y65.935 E20.8089
G1 X188.824 Y66.696 E20.84013
G1 X189.286 Y67.472 E20.87016
G1 X189.709 Y68.349 E20.90255
G1 X190.038 Y69.227 E20.93373
G1 X190.289 Y70.132 E20.96497
G1 X190.46 Y71.059 E20.99632
G1 X190.555 Y72.189 E21.03404
G1 X190.569 Y72.83 E21.05536
G1 X190.568 Y161.895 E24.01768
G1 X190.558 Y162.64 E24.04246
G1 X190.504 Y163.577 E24.07367
G1 X190.373 Y164.471 E24.10373
G1 X190.157 Y165.384 E24.13493
G1 X189.849 Y166.308 E24.16733
G1 X189.488 Y167.136 E24.19737
G1 X189.022 Y167.99 E24.22973
G1 X188.5 Y168.771 E24.26097
G1 X187.934 Y169.475 E24.29102
G1 X187.286 Y170.152 E24.32219
G1 X186.551 Y170.793 E24.35462
G1 X185.82 Y171.324 E24.38467
G1 X185.017 Y171.807 E24.41584
G1 X184.14 Y172.232 E24.44825
G1 X183.296 Y172.552 E24.47827
G1 X182.358 Y172.816 E24.51069
G1 X181.431 Y172.988 E24.54204
G1 X180.28 Y173.086 E24.58046
G1 X179.648 Y173.1 E24.60149
G1 X173.175 Y173.099 E24.81678
G1 X172.471 Y173.089 E24.8402
G1 X171.513 Y173.031 E24.87212
G1 X170.387 Y172.852 E24.91004
G1 X169.881 Y172.743 E24.92726
G1 X167.374 Y172.242 E25.01229
G1 X164.871 Y171.814 E25.09675
G1 X162.401 Y171.463 E25.17973
G1 X159.887 Y171.178 E25.26388
G1 X157.333 Y170.96 E25.34913
G1 X154.829 Y170.82 E25.43255
G1 X152.294 Y170.749 E25.51689
G1 X149.781 Y170.749 E25.60048
G1 X147.217 Y170.822 E25.68579
G1 X144.734 Y170.964 E25.76851
G1 X142.181 Y171.181 E25.85373
G1 X139.71 Y171.463 E25.93645
G1 X137.187 Y171.822 E26.02121
G1 X134.696 Y172.25 E26.10527
G1 X131.546 Y172.885 E26.21215
G1 X130.62 Y173.028 E26.24332
G1 X129.765 Y173.087 E26.27182
G1 X129.149 Y173.1 E26.29231
G1 X91.71 Y173.099 E27.53754
G1 X91.006 Y173.089 E27.56096
G1 X90.053 Y173.032 E27.59271
G1 X89.159 Y172.9 E27.62277
G1 X88.204 Y172.67 E27.65544
G1 X86.958 Y172.223 E27.69947
G1 X86.433 Y171.996 E27.71849
G1 X84.868 Y171.288 E27.77562
G1 X82.557 Y170.322 E27.85893
G1 X80.149 Y169.394 E27.94476
G1 X77.805 Y168.566 E28.02745
G1 X75.402 Y167.793 E28.1114
G1 X72.96 Y167.082 E28.196
G1 X70.509 Y166.444 E28.28024
G1 X68.078 Y165.884 E28.36321
G1 X65.526 Y165.372 E28.44978
G1 X63.085 Y164.953 E28.53215
G1 X60.576 Y164.595 E28.61645
G1 X58.089 Y164.312 E28.6997
G1 X54.972 Y164.05 E28.80374
G1 X54.041 Y163.929 E28.83496
G1 X53.125 Y163.726 E28.86617
G1 X52.264 Y163.455 E28.89619
G1 X51.364 Y163.081 E28.92861
G1 X50.534 Y162.645 E28.95979
G1 X49.774 Y162.157 E28.98983
G1 X49.004 Y161.56 E29.02224
G1 X48.317 Y160.92 E29.05347
G1 X47.712 Y160.25 E29.08349
G1 X47.125 Y159.472 E29.11591
G1 X46.631 Y158.675 E29.14709
G1 X46.223 Y157.87 E29.17711
G1 X45.862 Y156.965 E29.20952
G1 X45.593 Y156.066 E29.24073
G1 X45.411 Y155.181 E29.27078
G1 X45.279 Y153.775 E29.31775
G1 X45.266 Y153.158 E29.33827
G1 X45.267 Y73.031 E32.00331
G1 X45.277 Y72.348 E32.02603
G1 X45.332 Y71.411 E32.05725
G1 X45.464 Y70.518 E32.08727
G1 X45.681 Y69.605 E32.11848
G1 X45.978 Y68.714 E32.14972
G1 X46.368 Y67.822 E32.1821
G1 X46.819 Y67 E32.21329
G1 X47.342 Y66.22 E32.24452
G1 X47.909 Y65.516 E32.27459
G1 X48.584 Y64.815 E32.30695
G1 X49.265 Y64.222 E32.33699
G0 F6000 X49.002 Y63.92
G1 F1200 X49.79 Y63.346 E32.36941
G1 X50.687 Y62.811 E32.40415
G1 X51.564 Y62.39 E32.43651
G1 X52.409 Y62.07 E32.46656
G1 X53.415 Y61.789 E32.5013
G1 X54.382 Y61.611 E32.534
G1 X55.521 Y61.515 E32.57202
G1 X56.198 Y61.5 E32.59454
G1 X88.533 Y61.505 E33.67001
G1 X90.385 Y61.497 E33.73161
G1 X95.311 Y61.505 E33.89545
G1 X128.825 Y61.5 E35.01013
G1 X130.939 Y61.508 E35.08044
G1 X132.057 Y61.5 E35.11762
G1 X169.997 Y61.505 E36.37951
G1 X171.85 Y61.497 E36.44115
G1 X176.756 Y61.505 E36.60432
G1 X179.42 Y61.501 E36.69293
G1 X180.153 Y61.513 E36.71731
G1 X181.124 Y61.572 E36.74966
G1 X182.053 Y61.711 E36.78091
G1 X183.001 Y61.939 E36.81334
G1 X183.923 Y62.249 E36.84569
G1 X184.848 Y62.655 E36.87929
G1 X185.64 Y63.09 E36.90934
G1 X186.449 Y63.628 E36.94166
G1 X187.264 Y64.285 E36.97647
G1 X187.914 Y64.912 E37.00651
G1 X188.576 Y65.673 E37.04006
G1 X189.168 Y66.491 E37.07364
G1 X189.63 Y67.267 E37.10368
G1 X190.084 Y68.209 E37.13846
G1 X190.413 Y69.087 E37.16965
G1 X190.682 Y70.059 E37.20319
G1 X190.859 Y71.025 E37.23585
G1 X190.954 Y72.155 E37.27357
G1 X190.969 Y72.83 E37.29603
G1 X190.968 Y161.9 E40.25851
G1 X190.957 Y162.663 E40.28389
G1 X190.9 Y163.635 E40.31627
G1 X190.769 Y164.529 E40.34632
G1 X190.546 Y165.476 E40.37868
G1 X190.216 Y166.468 E40.41345
G1 X189.855 Y167.296 E40.4435
G1 X189.355 Y168.212 E40.47821
G1 X188.812 Y169.022 E40.51064
G1 X188.246 Y169.726 E40.54069
G1 X187.575 Y170.429 E40.57301
G1 X186.786 Y171.117 E40.60783
G1 X186.055 Y171.648 E40.63788
G1 X185.223 Y172.15 E40.6702
G1 X184.282 Y172.606 E40.70498
G1 X183.438 Y172.926 E40.735
G1 X182.466 Y173.201 E40.7686
G1 X181.465 Y173.387 E40.80246
G1 X180.314 Y173.485 E40.84088
G1 X179.648 Y173.5 E40.86304
G1 X173.169 Y173.499 E41.07853
G1 X172.447 Y173.488 E41.10255
G1 X171.45 Y173.426 E41.13577
G1 X170.303 Y173.243 E41.1744
G1 X169.797 Y173.134 E41.19162
G1 X167.3 Y172.635 E41.27631
G1 X164.815 Y172.21 E41.36016
G1 X162.345 Y171.859 E41.44314
G1 X159.853 Y171.577 E41.52655
G1 X157.299 Y171.358 E41.61181
G1 X154.818 Y171.22 E41.69446
G1 X152.283 Y171.149 E41.7788
G1 X149.792 Y171.149 E41.86165
G1 X147.228 Y171.222 E41.94697
G1 X144.768 Y171.363 E42.02892
G1 X142.215 Y171.579 E42.11414
G1 X139.766 Y171.859 E42.19612
G1 X137.243 Y172.218 E42.28088
G1 X134.771 Y172.643 E42.36431
G1 X131.607 Y173.28 E42.47166
G1 X130.648 Y173.427 E42.50393
G1 X129.773 Y173.487 E42.5331
G1 X129.149 Y173.5 E42.55386
G1 X91.704 Y173.499 E43.79928
G1 X90.982 Y173.488 E43.8233
G1 X89.995 Y173.428 E43.85619
G1 X89.065 Y173.289 E43.88746
G1 X88.069 Y173.047 E43.92155
G1 X86.823 Y172.6 E43.96558
G1 X86.268 Y172.36 E43.98569
G1 X84.714 Y171.657 E44.04242
G1 X82.403 Y170.691 E44.12573
G1 X80.005 Y169.767 E44.2112
G1 X77.683 Y168.947 E44.29311
G1 X75.28 Y168.174 E44.37707
G1 X72.852 Y167.467 E44.46118
G1 X70.419 Y166.834 E44.54479
G1 X67.988 Y166.274 E44.62776
G1 X65.451 Y165.765 E44.71383
G1 X63.028 Y165.349 E44.7956
G1 X60.519 Y164.991 E44.87989
G1 X58.055 Y164.711 E44.96237
G1 X54.92 Y164.447 E45.06701
G1 X53.954 Y164.32 E45.09942
G1 X53.038 Y164.117 E45.13062
G1 X52.144 Y163.837 E45.16178
G1 X51.178 Y163.435 E45.19658
G1 X50.318 Y162.982 E45.22891
G1 X49.558 Y162.494 E45.25895
G1 X48.731 Y161.853 E45.29375
G1 X48.044 Y161.213 E45.32498
G1 X47.415 Y160.518 E45.35616
G1 X46.785 Y159.683 E45.39095
G1 X46.274 Y158.856 E45.42328
G1 X45.851 Y158.018 E45.4545
G1 X45.49 Y157.113 E45.48691
G1 X45.201 Y156.147 E45.52044
G1 X45.019 Y155.262 E45.5505
G1 X44.879 Y153.783 E45.59991
G1 X44.866 Y153.158 E45.6207
G1 X44.867 Y73.025 E48.28593
G1 X44.878 Y72.325 E48.30922
G1 X44.936 Y71.353 E48.34161
G1 X45.068 Y70.46 E48.37163
G1 X45.292 Y69.513 E48.404
G1 X45.611 Y68.554 E48.43761
G1 X46.001 Y67.662 E48.46999
G1 X46.468 Y66.808 E48.50236
G1 X47.03 Y65.969 E48.53595
G1 X47.597 Y65.265 E48.56602
G1 X48.321 Y64.513 E48.60074
G1 X49.002 Y63.92 E48.63077
G1 F1500 E42.13077
;MESH:View1.stl
G0 F6000 X64.019 Y71.847
G0 X64.201 Y72.914
G0 X65.791 Y125.925
;TYPE:WALL-INNER
G1 F1500 E48.63077
G1 F1371.4 X65.791 Y73.075 E50.16884
G1 X65.441 Y73.075 E50.17903
G1 X65.441 Y125.925 E51.7171
G1 X65.791 Y125.925 E51.72729
G0 F6000 X66.166 Y126.3
;TYPE:WALL-OUTER
G1 F1200 X66.166 Y72.7 E53.51003
G1 X65.066 Y72.7 E53.54662
G1 X65.066 Y126.3 E55.32936
G1 X66.166 Y126.3 E55.36595
G1 F1500 E48.86595
G0 F6000 X65.896 Y126.03
G0 X68.286 Y125.925
G0 X68.791 Y125.925
;TYPE:WALL-INNER
G1 F1500 E55.36595
G1 F1371.4 X68.791 Y73.075 E56.90402
G1 X68.441 Y73.075 E56.91421
G1 X68.441 Y125.925 E58.45228
G1 X68.791 Y125.925 E58.46247
G0 F6000 X69.166 Y126.3
;TYPE:WALL-OUTER
G1 F1200 X69.166 Y72.7 E60.24521
G1 X68.066 Y72.7 E60.2818
G1 X68.066 Y126.3 E62.06454
G1 X69.166 Y126.3 E62.10112
G1 F1500 E55.60112
G0 F6000 X68.896 Y126.03
G0 X70.031 Y125.925
G0 X70.213 Y154.153
G0 X82.019 Y154.153
G0 X82.201 Y125.925
G0 X83.791 Y125.925
;TYPE:WALL-INNER
G1 F1500 E62.10112
G1 F1371.4 X83.791 Y73.075 E63.6392
G1 X83.441 Y73.075 E63.64938
G1 X83.441 Y125.925 E65.18746
G1 X83.791 Y125.925 E65.19764
G0 F6000 X84.166 Y126.3
;TYPE:WALL-OUTER
G1 F1200 X84.166 Y72.7 E66.98039
G1 X83.066 Y72.7 E67.01697
G1 X83.066 Y126.3 E68.79972
G1 X84.166 Y126.3 E68.8363
G1 F1500 E62.3363
G0 F6000 X83.896 Y126.03
G0 X86.286 Y125.925
G0 X86.791 Y125.925
;TYPE:WALL-INNER
G1 F1500 E68.8363
G1 F1371.4 X86.791 Y73.075 E70.37438
G1 X86.441 Y73.075 E70.38456
G1 X86.441 Y125.925 E71.92263
G1 X86.791 Y125.925 E71.93282
G0 F6000 X87.166 Y126.3
;TYPE:WALL-OUTER
G1 F1200 X87.166 Y72.7 E73.71556
G1 X86.066 Y72.7 E73.75215
G1 X86.066 Y126.3 E75.53489
G1 X87.166 Y126.3 E75.57148
G1 F1500 E69.07148
G0 F6000 X86.896 Y126.03
G0 X89.286 Y126.086
G0 X89.791 Y152.925
;TYPE:WALL-INNER
G1 F1500 E75.57148
G1 F1371.4 X89.791 Y73.075 E77.89532
G1 X89.441 Y73.075 E77.90551
G1 X89.441 Y152.925 E80.22935
G1 X89.791 Y152.925 E80.23954
G0 F6000 X90.166 Y153.3
;TYPE:WALL-OUTER
G1 F1200 X90.166 Y72.7 E82.92031
G1 X89.066 Y72.7 E82.95689
G1 X89.066 Y153.3 E85.63766
G1 X90.166 Y153.3 E85.67425
G1 F1500 E79.17425
G0 F6000 X89.896 Y153.03
G0 X89.286 Y152.925
G0 X88.201 Y152.925
G0 X82.031 Y152.925
G0 X80.791 Y152.925
;TYPE:WALL-INNER
G1 F1500 E85.67425
G1 F1371.4 X80.791 Y73.075 E87.99809
G1 X80.441 Y73.075 E88.00828
G1 X80.441 Y152.925 E90.33212
G1 X80.791 Y152.925 E90.34231
G0 F6000 X81.166 Y153.3
;TYPE:WALL-OUTER
G1 F1200 X81.166 Y72.7 E93.02307
G1 X80.066 Y72.7 E93.05966
G1 X80.066 Y153.3 E95.74043
G1 X81.166 Y153.3 E95.77701
G1 F1500 E89.27701
G0 F6000 X80.896 Y153.03
G0 X80.286 Y152.925
G0 X77.946 Y152.925
G0 X77.791 Y152.925
;TYPE:WALL-INNER
G1 F1500 E95.77701
G1 F1371.4 X77.791 Y73.075 E98.10086
G1 X77.441 Y73.075 E98.11104
G1 X77.441 Y152.925 E100.43489
G1 X77.791 Y152.925 E100.44507
G0 F6000 X78.166 Y153.3
;TYPE:WALL-OUTER
G1 F1200 X78.166 Y72.7 E103.12584
G1 X77.066 Y72.7 E103.16242
G1 X77.066 Y153.3 E105.84319
G1 X78.166 Y153.3 E105.87978
